X:30
T:Foxhunters, The
S:The Session: https://thesession.org/tunes/511#setting55330
C:Traditional
R:reel
K:G
M:4/4
L:1/8
Q:1/4=120
|: "G"d2BG d2BG| d2BG "D"AGEG| "G"d2BG dGBG| "C"AcBG "D"AGEG:|
|: "G"D~D2B BAGE| DGBG "C"AGEG| "G"D~D2B BAGB| "C"AcBG "D"AGEG:| 
|: "G"gedB GABd| gdBd "C"eaaf| "G"gedB GABG| "Am"ABcd "D"eA~A2:| 
|: "G"dggf ~g2ge| dggd "C"egdB| "G"dggf ~g2gd| "C"egdB "D"AGAB:| 
|: "G"G2BG dGBG| GABG "D"AGAB| "G"~G2BG dGBd|1 "C"egdB "D"AGAB:|2"C"egdB "G"AG3||

